X:1
T:Ecco l'alba
T:Ecco l'alba
T:Giovanni Ghizzolo
C:Giovanni Ghizzolo
%%score 1 { 2 | 3 }
L:1/8
Q:1/4=120
M:4/4
K:C
V:1 treble nm="Soprano" snm="S"
V:2 treble nm="MusicXML Part"
V:3 bass 
V:1
"^Source: Madrigali et Arie---Libro terzo---Venetia---A.Raverij---1609.\nEditor: André Vierendeels (27/12/09)\nContinuo: André Vierendeels" z2 ed cB c2- | %1
w: Ec- * co _ l'al-|
w: I _ li- * gus-|
w: Par- * t'il _ son-|
 c2 dc BA B"^SCHERZO"G | A4 A2 B2- | B2 BG A4 | A4 dB cd | eA Bc B3 A | A4 A4 :: ef de c2 A2 | %8
w: * ba _ ru- * gia _|do- sa co-|* me _ ro-|sa sen _ di- *|re _ n'e _ pie d'ar-|gen- to.|Che _ la _ chio- m'in-|
w: * tri'e _ gel _ so- *|mi- ni da|_ bei _ cri-|ni e _ dal _|pet- * ta _ al- bas-|tri- no.|Van _ ca- * den- do'e|
w: * no _ fug- * * ge|l'om- bra che|_ dis- * gom-|bra de- * sio _|gia _ col _ ca- ro|lu- me.|La _ ca- * li- gi-|
 de cd B2 G2 | cA Bc B2 G2 | Ac Bd c2 dc | B3 A A4 | A8 |] %13
w: na _ ne _ la- ta|D'or _ freg- * gia- ta|vez- * zo- * set- ta _|spar- gi'al ven-|to.|
w: la _ dol- * ce'au- ra|ne _ ris- * tau- ra|con _ 'o- * dor gra _|to di- vi-|no.|
w: ne _ d'in- * tor- no|ec- * co'il _ gior- no|On- * de'an _ ch'io las- *|cio le pri-|mo.|
V:2
 [EGc]8 | [FAc]2 [FAd]2 [EA]2 [EGB]2 | [FA]8 | [EG]4 [^FA]4 | [^FA]4 [DG]4 | [EGc]2 [EAc]2 [E^G]4 | %6
 [^CEA]8 :: [EG]2 [DG]2 [EA]2 [^FA]2 | [DGB]8 | [EA]2 F2 [DGB]4 | [D^FA]2 [DB]2 [EA]2 [DA]2 | %11
 [E^G]4 [^CEA]4 | [^CEA]8 |] %13
V:3
 C,8 | F,2 D,2 E,2 E,2 | D,4 D,4 | E,2 E,2 D,4 | D,4 B,,4 | C,2 A,,2 E,4 | A,,4 A,,4 :: %7
 C2 B,2 A,2 A,2 | %8
 G,4"^Note: original keys: Ut1st, Fa 4rth""^E'n fiammar mi seto il petto\ndal dileto\nChe'n me spiran le tue muse\nChe seguir brano, e s'io caggio\nNel viaggio\nBel desir reco mi scuse." G,4 | %9
 A,2 A,2 G,4 | %10
"^Ma s'avien ch'opra gentile\nDal mio stile\nL'alma Clio giamai rissume\nSi dira si nobil vanto\nDessi alc'intro\nBel ligustrico anfione." ^F,2 G,2 A,2 D,2 | %11
 E,4"^Febo anch'ei la chiona bionda\nFuor de l'onda\nA gran passo ne dicopre\nElfe zando i suoi destrieri\nI pensieri\nDesta in noi de l'viate opre." A,,4 | %12
 A,,8 |] %13

